X: 25455
T: Marche Des Cabrettaires
R: polka
M: 2/4
K: Dmajor
z A de|:f>f ff|fg fe|d4|z A de|
f2 d2|c2 d2|e4|z e ef|
g>g gg|ga gf|e4|z e fg|
a3 b|a>g fe|1 f3 e|dA de:|2 d>e fe|d3 a||
|:fa fa|f3 a|b>a gf|g e2 g|
eg eg|e3 a|a>g fe|1 f d2 a:|2 d4||

